X: 1
T: SADDLE THE PONY -- JIG
B: Ryan's Mammoth Collection of Fiddle Tunes
R: jig
M: 6/8
L: 1/8
Z: Contributed 20000421024014 by John Chambers jcsd:world.std.com
K: Amix
ug \
| fed cAA | cAA ecA | fed cAA | BGB dBG |
| fed cAA | cAA ecA | fgf g2d | BGB d2 :|
|: uB \
| cee dff | cee ecA | cee dff | B^GB dBG |
| cee dff | cee ecA | faf g2d | BGB d2 :|
